svg/motor_controller_outline.svg

<svg width="24" height="24" viewBox="0 0 24 24"  xmlns="http://www.w3.org/2000/svg">
<path d="M14.0703 10.8867L15.2383 15H16.707L17.8594 10.8945H17.8945C17.8633 11.5143 17.8451 11.9036 17.8398 12.0625C17.8372 12.2214 17.8359 12.3659 17.8359 12.4961V15H19.2539V9.28906H17.1953L16.0273 13.3438H15.9961L14.8047 9.28906H12.75V15H14.1172V12.5195C14.1172 12.1315 14.0898 11.5872 14.0352 10.8867H14.0703Z" />
<path fill-rule="evenodd" clip-rule="evenodd" d="M16 19C19.866 19 23 15.866 23 12C23 8.13401 19.866 5 16 5C12.4735 5 9.55612 7.60771 9.07089 11H7V10C7 8.89543 6.10457 8 5 8H3C1.89543 8 1 8.89543 1 10V14C1 15.1046 1.89543 16 3 16H5C6.10457 16 7 15.1046 7 14V13H9.07089C9.55612 16.3923 12.4735 19 16 19ZM16 17.5C19.0376 17.5 21.5 15.0376 21.5 12C21.5 8.96243 19.0376 6.5 16 6.5C12.9624 6.5 10.5 8.96243 10.5 12C10.5 15.0376 12.9624 17.5 16 17.5Z" />
</svg>

<svg width="24" height="24" viewBox="0 0 24 24" xmlns="http://www.w3.org/2000/svg"><path d="M14.07 10.887L15.238 15h1.469l1.152-4.105h.035c-.03.62-.049 1.009-.054 1.168-.003.158-.004.303-.004.433V15h1.418V9.29h-2.059l-1.168 4.054h-.03l-1.192-4.055H12.75V15h1.367v-2.48c0-.388-.027-.933-.082-1.633h.035z"/><path fill-rule="evenodd" clip-rule="evenodd" d="M16 19a7 7 0 1 0-6.93-8H7v-1a2 2 0 0 0-2-2H3a2 2 0 0 0-2 2v4a2 2 0 0 0 2 2h2a2 2 0 0 0 2-2v-1h2.07A7.002 7.002 0 0 0 16 19zm0-1.5a5.5 5.5 0 1 0 0-11 5.5 5.5 0 0 0 0 11z"/></svg>
